assets/images/corner-lines-top.svg

<svg id="what_we_do" data-name="what we do" xmlns="http://www.w3.org/2000/svg" width="192" height="257" viewBox="0 0 192 257"><defs><style>.cls-1,.cls-2{fill:none;stroke-width:1px;fill-rule:evenodd}.cls-1{stroke:#5f605f}.cls-2{stroke:#fff}</style></defs><g id="bg"><g id="pattern_top" data-name="pattern top"><path id="lines" class="cls-1" d="M22-2l-640 859"/><path id="lines_copy" data-name="lines copy" class="cls-1" d="M38-2l-640 859"/><path id="lines_copy_2" data-name="lines copy 2" class="cls-1" d="M54-2l-640 859"/><path id="lines_copy_3" data-name="lines copy 3" class="cls-1" d="M70-2l-640 859"/><path id="lines_copy_4" data-name="lines copy 4" class="cls-1" d="M86-2l-640 859"/><path id="lines_copy_5" data-name="lines copy 5" class="cls-1" d="M102-2l-640 859"/><path id="lines_copy_6" data-name="lines copy 6" class="cls-2" d="M120-2l-640 859"/><path id="lines_copy_7" data-name="lines copy 7" class="cls-2" d="M137-2l-640 859"/><path id="lines_copy_8" data-name="lines copy 8" class="cls-2" d="M156-2l-640 859"/><path id="lines_copy_9" data-name="lines copy 9" class="cls-2" d="M175-2l-640 859"/><path id="lines_copy_10" data-name="lines copy 10" class="cls-2" d="M193-2l-640 859"/></g></g></svg>

<svg id="what_we_do" data-name="what we do" xmlns="http://www.w3.org/2000/svg" width="192" height="257" viewBox="0 0 192 257">
  <defs>
    <style>
      .cls-1, .cls-2 {
        fill: none;
        stroke-width: 1px;
        fill-rule: evenodd;
      }

      .cls-1 {
        stroke: #5f605f;
      }

      .cls-2 {
        stroke: #fff;
      }
    </style>
  </defs>
  <g id="bg">
    <g id="pattern_top" data-name="pattern top">
      <path id="lines" class="cls-1" d="M22-2L-618,857"/>
      <path id="lines_copy" data-name="lines copy" class="cls-1" d="M38-2L-602,857"/>
      <path id="lines_copy_2" data-name="lines copy 2" class="cls-1" d="M54-2L-586,857"/>
      <path id="lines_copy_3" data-name="lines copy 3" class="cls-1" d="M70-2L-570,857"/>
      <path id="lines_copy_4" data-name="lines copy 4" class="cls-1" d="M86-2L-554,857"/>
      <path id="lines_copy_5" data-name="lines copy 5" class="cls-1" d="M102-2L-538,857"/>
      <path id="lines_copy_6" data-name="lines copy 6" class="cls-2" d="M120-2L-520,857"/>
      <path id="lines_copy_7" data-name="lines copy 7" class="cls-2" d="M137-2L-503,857"/>
      <path id="lines_copy_8" data-name="lines copy 8" class="cls-2" d="M156-2L-484,857"/>
      <path id="lines_copy_9" data-name="lines copy 9" class="cls-2" d="M175-2L-465,857"/>
      <path id="lines_copy_10" data-name="lines copy 10" class="cls-2" d="M193-2L-447,857"/>
    </g>
  </g>
</svg>
